X:1
T:Grange, 87.87.77
T:Grange, 87.87.77
T:Robert Brown-Borthwick, 1883
T:Public Domain Courtesy of the Cyber Hymnal™
C:Robert Brown-Borthwick, 1883
Z:Public Domain
Z:Courtesy of the Cyber Hymnal™
%%score ( 1 2 ) ( 3 4 )
L:1/8
Q:1/4=145
M:3/2
K:G
V:1 treble 
V:2 treble 
V:3 bass 
V:4 bass 
V:1
 D3 D | [DB]6 [DA]2 [DG]2 [DA]2 | [DG]4 [DF]4 [B,G]3 [B,G] | [Ee]6 [=Fd]2 [Ec]2 [GB]2 | %4
 [FA]8 D3 D | [GB]6 A2 [Ad]2 [A^c]2 | [AB]4 [GB]4 [GB]3 [GB] | [FA]2 [FA]2 [Gd]4 [G^c]4 | %8
 [Fd]8 D3 D | [B,G]6 [EG]2 [FA]2 [GB]2 | (e4 d4) [DG]2 [DG]2 | [CE]4 (c2 B2) [FA]3 G | G8 |] %13
V:2
 D3 D | x12 | x12 | x12 | x8 D3 D | x6 A2 x4 | x12 | x12 | x8 D3 D | x12 | G8 x4 | x4 E4 x G x2 | %12
 G8 |] %13
V:3
 [G,B,]3 [G,B,] | [G,D]6 [G,C]2 [G,B,]2 [G,C]2 | [D,B,]4 [D,A,]4 [E,G,]3 [E,G,] | %3
 [E,G,]6 [B,,G,]2 [C,G,]2 [G,,D]2 | [D,D]8 D,3 D, | [G,D]6 [G,^C]2 [F,D]2 [F,D]2 | %6
 [G,D]4 [G,D]4 [G,D]3 [G,D] | [A,D]2 [A,D]2 [A,E]4 [A,E]4 | [D,D]8 [D,F,]3 [D,F,] | %9
 [E,G,]6 [E,B,]2 [D,D]2 [G,D]2 | ([C,C]4 [G,,B,]4) [B,,G,]2 [B,,G,]2 | %11
 [C,G,]4 (A,2 B,2) [D,C]3 [G,B,] | [G,B,]8 |] %13
V:4
 x4 | x12 | x12 | x12 | x8 D,3 D, | x12 | x12 | x12 | x12 | x12 | x12 | x4 C,4 x4 | x8 |] %13

